X: 512
U:~=!turn!
M:C
L:1/8
K:G aeolian
{/^F}GABc {Bc}d2 (cB) | AFcF dFcF | [1 {/^F}GABc {Bc}d2 (cB) | AFcA G/G/G G2 :| [2 GABc deTfd | {/d}cAfA G/G/G TG2 || (Gg)ga {ga}b2 (ag) |


